X: 1
T: the Shanghai Traveller
C: Anselm Lingnau
R: jig
B: Anselm Lingnau "Nine Weddings (And No Funeral)" p.9
F: http://www.anselms.net/SCD/wbook/wbook.pdf
Z: 2012 John Chambers <jc:trillian.mit.edu>
M: 6/8
L: 1/8
K: D
A |\
"D"d3 a2f | "A"e/f/gc "D"d2A | "G"BAG "D/F#"AFD | "Em"GFG "A"E2A |\
"D"d3 a2f | "A"e/f/gc "D"def | "Em"ged "A7"cBA | "D"d3- d2 :|
c |\
"G"B2c d2B | "D"A2d FGA | "Em"G2E "A"cBA | "D"d/e/fd "A"ecA |\
"G"B2c d2B | "D"A2d FGA | "G"B/c/dB "A7"c/d/ec | "D"d3 d2 ||
c |\
"G"Bcd dcB | "D"A2d FGA | "Em"GFE "A"c2A | "D"d/e/fd "A"e2A |\
"D"d3 a2f | "A"e/f/gc "D"dAF | "Em"GBe "A7"cBc | "D"dAF D2 |]
